build/system/AttachFileSolid.svg

<svg xmlns="http://www.w3.org/2000/svg" fill="none" viewBox="0 0 24 24" focusable="false"><path d="M0 0H24V24H0z"/><path fill="#74767B" fill-rule="evenodd" d="M3 12C3 7.02944 7.02944 3 12 3C16.9706 3 21 7.02944 21 12C21 16.9706 16.9706 21 12 21C7.02944 21 3 16.9706 3 12ZM8.06051 15.9797C9.4078 17.327 11.5922 17.327 12.9395 15.9797L17.4596 11.4596C17.7135 11.2058 17.7135 10.7942 17.4596 10.5404C17.2058 10.2865 16.7942 10.2865 16.5404 10.5404L12.0203 15.0605C11.1806 15.9001 9.81936 15.9001 8.97975 15.0605C8.14014 14.2209 8.14013 12.8596 8.97975 12.02L12.8794 8.1203C13.1333 7.86646 13.5448 7.86646 13.7987 8.1203L13.9401 8.2617C14.1939 8.51554 14.1939 8.92709 13.9401 9.18093L9.96418 13.1568C9.71033 13.4107 9.71033 13.8222 9.96418 14.0761C10.218 14.3299 10.6296 14.3299 10.8834 14.0761L14.8593 10.1002C15.6208 9.33865 15.6208 8.10398 14.8593 7.34246L14.7179 7.20106C13.9564 6.43954 12.7217 6.43954 11.9602 7.20107L8.06051 11.1008C6.71321 12.4481 6.71322 14.6325 8.06051 15.9797Z"/></svg>

<svg xmlns="http://www.w3.org/2000/svg" fill="none" viewBox="0 0 24 24" focusable="false"><path fill="#74767B" fill-rule="evenodd" d="M3 12c0-4.98 4.02-9 9-9 4.97 0 9 4.02 9 9a9 9 0 0 1-9 9c-4.98 0-9-4.03-9-9m5.06 3.97a3.434 3.434 0 0 0 4.87 0l4.52-4.52c.26-.25.26-.66 0-.91a.63.63 0 0 0-.91 0l-4.52 4.52c-.84.84-2.21.84-3.05 0-.83-.84-.83-2.21 0-3.04l3.9-3.9a.64.64 0 0 1 .92 0l.14.14c.26.25.26.66 0 .92l-3.97 3.97c-.25.26-.25.67 0 .92s.66.25.92 0l3.97-3.97c.77-.77.77-2 0-2.76l-.14-.14c-.76-.77-1.99-.77-2.75 0l-3.9 3.9a3.434 3.434 0 0 0 0 4.87"/></svg>
